svg/furkot/freepik/museum.svg

<svg viewBox="0 0 512 512" xmlns="http://www.w3.org/2000/svg"><path d="m353.178 408.945v-223.069h-74.343v223.069zm111.554 0v-223.069h-74.363v223.069zm37.192-266.855-241.644-142.09-241.684 142.09s-16.671 15.033 0 25.191h483.328s13.517-11.06 0-25.191zm-260.24 266.855v-223.069h-74.362v223.069zm-111.534 0v-223.069h-74.383v223.069zm355.472 26.255-444.764 1.249-40.838 53.351v30.699h520.459v-30.699z"/></svg>

<svg xmlns="http://www.w3.org/2000/svg" viewBox="0 0 512 512"><path d="M353.178 408.945V185.876H278.835V408.945H353.178ZM464.732 408.945V185.876H390.369V408.945H464.732ZM501.924 142.09L260.28 0 18.596 142.09C18.596 142.09 1.925 157.123 18.596 167.281H501.924C501.924 167.281 515.441 156.221 501.924 142.09ZM241.684 408.945V185.876H167.322V408.945H241.684ZM130.15 408.945V185.876H55.767V408.945H130.15ZM485.622 435.2L40.858 436.449 0.02 489.8V520.499H520.479V489.8L485.622 435.2Z"/></svg>
